example/docs/.vuepress/assets/icons/link.svg

<svg xmlns="http://www.w3.org/2000/svg" width="16" height="16"><path fill="#777" d="M14.4 9.5c0-.4.3-.8.8-.8s.8.3.8.8v4.3c0 .6-.3 1.2-.7 1.6s-1 .7-1.6.7H2.2c-.6 0-1.2-.3-1.6-.7s-.6-1-.6-1.6V2.2C0 1.6.2 1 .7.6S1.6 0 2.2 0h4.3c.4 0 .8.3.8.8s-.4.7-.8.7H2.2c-.2 0-.3.1-.5.2-.1.2-.2.3-.2.5v11.5c0 .2.1.4.2.5.1.1.3.2.5.2h11.5c.2 0 .4-.1.5-.2.1-.1.2-.3.2-.5V9.5zm.2-7.2L7 10c-.3.3-.8.3-1.1 0-.2-.3-.2-.8.1-1.1l7.3-7.4h-3c-.4 0-.8-.3-.8-.8s.3-.7.7-.7h3.5c.7 0 1.5-.1 2 .4.3.3.3 2.9.2 4.5v.9c0 .4-.3.8-.8.8-.4 0-.8-.3-.8-.8v-.9c.1-.9.3-1.9.3-2.6z"/></svg>

<?xml version="1.0" encoding="utf-8"?>
<!-- Generator: Adobe Illustrator 18.0.0, SVG Export Plug-In . SVG Version: 6.00 Build 0)  -->
<!DOCTYPE svg PUBLIC "-//W3C//DTD SVG 1.1//EN" "http://www.w3.org/Graphics/SVG/1.1/DTD/svg11.dtd">
<svg version="1.1" id="Layer_1" xmlns="http://www.w3.org/2000/svg" xmlns:xlink="http://www.w3.org/1999/xlink" x="0px" y="0px"
	 width="16px" height="16px" viewBox="0 0 16 16" enable-background="new 0 0 16 16" xml:space="preserve">
<g display="none">
	<path display="inline" fill="#777777" d="M7.9,11.7C7.9,11.7,7.9,11.7,7.9,11.7L6,13.6c-1.7,1.7-4.4,1.7-6.1,0
		C-1.7,12-1.7,9.2,0,7.6l1-1c0.3-0.3,0.8-0.1,0.8,0.3c0,0.5,0.1,1,0.3,1.5c0.1,0.2,0,0.3-0.1,0.5L1.6,9.1c-0.8,0.8-0.8,2.1,0,2.9
		c0.8,0.8,2.1,0.8,2.9,0l1.9-1.9c0.8-0.8,0.8-2.1,0-2.9C6.2,7.2,6.1,7.1,6,7C5.9,7,5.8,6.8,5.8,6.7c0-0.3,0.1-0.6,0.3-0.8l0.6-0.6
		c0.2-0.2,0.4-0.2,0.6,0c0.2,0.1,0.4,0.3,0.6,0.5C9.6,7.4,9.6,10.1,7.9,11.7z M11.9,7.8l-1,1c-0.3,0.3-0.8,0.1-0.8-0.3
		C10,8,10,7.5,9.8,7c-0.1-0.2,0-0.3,0.1-0.5l0.4-0.4c0.8-0.8,0.8-2.1,0-2.9c-0.8-0.8-2.1-0.8-2.9,0L5.5,5.2C4.7,6,4.7,7.3,5.5,8.1
		c0.1,0.1,0.2,0.2,0.3,0.2C5.9,8.4,6,8.5,6,8.7C6,9,5.9,9.3,5.7,9.5l-0.6,0.6c-0.2,0.2-0.4,0.2-0.6,0C4.3,10,4.1,9.8,3.9,9.7
		c-1.7-1.7-1.7-4.4,0-6c0,0,0,0,0,0l1.9-1.9c1.7-1.7,4.4-1.7,6.1,0C13.5,3.4,13.5,6.1,11.9,7.8z"/>
</g>
<g display="none">
	<path display="inline" fill="#777777" d="M13.2,13.4c0,0.9-0.7,1.6-1.6,1.6H0.2c-0.9,0-1.6-0.7-1.6-1.6V2c0-0.9,0.7-1.6,1.6-1.6
		h11.4c0.9,0,1.6,0.7,1.6,1.6V13.4z M6.6,3.4C6,3.4,5.7,4.1,6.1,4.5l0.8,0.8l-5.2,5.2c-0.1,0.1-0.1,0.3,0,0.4l0.8,0.8
		c0.1,0.1,0.3,0.1,0.4,0l5.2-5.2l0.8,0.8c0.4,0.4,1.1,0.1,1.1-0.5v-3c0-0.4-0.3-0.6-0.6-0.6H6.6z"/>
</g>
<g>
	<path fill="#777777" d="M14.4,9.5c0-0.4,0.3-0.8,0.8-0.8s0.8,0.3,0.8,0.8v4.3c0,0.6-0.3,1.2-0.7,1.6s-1,0.7-1.6,0.7H2.2
		c-0.6,0-1.2-0.3-1.6-0.7S0,14.4,0,13.8V2.2c0-0.6,0.2-1.2,0.7-1.6S1.6,0,2.2,0h4.3c0.4,0,0.8,0.3,0.8,0.8S6.9,1.5,6.5,1.5H2.2
		C2,1.5,1.9,1.6,1.7,1.7C1.6,1.9,1.5,2,1.5,2.2v11.5c0,0.2,0.1,0.4,0.2,0.5c0.1,0.1,0.3,0.2,0.5,0.2h11.5c0.2,0,0.4-0.1,0.5-0.2
		c0.1-0.1,0.2-0.3,0.2-0.5V9.5L14.4,9.5z M14.6,2.3L7,10c-0.3,0.3-0.8,0.3-1.1,0C5.7,9.7,5.7,9.2,6,8.9l7.3-7.4h-3
		c-0.4,0-0.8-0.3-0.8-0.8S9.8,0,10.2,0h3.5c0.7,0,1.5-0.1,2,0.4C16,0.7,16,3.3,15.9,4.9c0,0.4,0,0.7,0,0.9c0,0.4-0.3,0.8-0.8,0.8
		c-0.4,0-0.8-0.3-0.8-0.8c0,0,0-0.4,0-0.9C14.4,4,14.6,3,14.6,2.3L14.6,2.3z"/>
</g>
</svg>
